X: 799
T: Gel Nazlı Güzel
C: Udî Hrant Kenkiloğlu
O: Turkey
F: http://compmusic.upf.edu/node/140
N: hicaz-uzzal--sarki--turkaksagi--gel_nazli--udi_hrant
N: makam= hicaz-uzzal
N: form= sarki
N: usul= turkaksagi = 5/8
M: 5/8
L: 1/16
K: C _7/8B ^f ^c 
Q: 1/4=96
%%MIDI tuningsystem comma53
(3e2f2g2(3g2f2e2 d2a2g2=f2 e2d2 | \
w:  Gel  *  *  *  *  *  naz  | 
(3c2B2c2 B2A2A8z4  | edcde4 e2=f2e2f2 e2d2 | 
w:  lı  *  *  gü *  zel   |  gel   | 
=f3e d2{e}dcd8z4  | d4e12 f4 | g3f g2=b2a4 gfede4  | \
w:  ba *  na  *  *  *  can   |  ver   |   | 
e4e2d2 (3e2f2g2(3a2g2f2 f2e2 | 
w:  gü lü *  şün  | 
e8(3c2B2c2 d2B2A4  | (3e2f2g2(3g2f2e2 d2a2g2=f2 e2d2 | \
w:  le   SAZ  |  Gel  *  *  *  *  *  naz  | 
(3c2B2c2 B2A2A8z4  | 
w:  lı  *  *  gü *  zel   | 
edcde4 e2=f2e2f2 e2d2 | =f3e d2{e}dcd8z4  | \
w:  gel   |  ba *  na  *  *  *  can   | 
d4e12 f4 | 
w:  ver   | 
g3f g2=b2a4 gfede4  | e4e2d2 (3e2f2g2(3a2g2f2 f2e2 | 
w:   |  gü lü *  şün  | 
e8d3/2c/de f3/2e/fga4  | a6g2 g2ag=f2e2 f2g2 | \
w:  le   SAZ  |  Gel  *  sî  | 
a2{b}ag =f2{g}fef8z4  | 
w:  ne *  *  *  mi  *  *  *  aç   | 
e4=f2a2 g2f2e2d2 c2d2 | e2d2 g2=fee8z4  | \
w:  yâ  |  re *  mi  *  *  gör   | 
(3c2B2c2d2B2 A4B4 c4 | 
w:  kal  | 
d2e2 f2a2g2=f2 e2d2c2B2  | A4A4 (3A2B2c2(3d2c2B2 B2A2 | \
w:   |  bi mi  din  | 
A8d3/2c/de f3/2e/fga4  | 
w:  le   SAZ  | 
a6g2 g2ag=f2e2 f2g2 | a2{b}ag =f2{g}fef8z4  | \
w:  Gel  *  sî  |  ne *  *  *  mi  *  *  *  aç   | 
e4=f2a2 g2f2e2d2 c2d2 | 
w:  yâ  | 
e2d2 g2=fee8z4  | (3c2B2c2d2B2 A4B4 c4 | \
w:  re *  mi  *  *  gör   |  kal  | 
d2e2 f2a2g2=f2 e2d2c2B2  | 
w:   | 
A4A4 (3A2B2c2(3d2c2B2 B2A2 | A8a^ga=b =c'baga4  | \
w:  bi mi  din  |  le   SAZ  | 
a8 =b2d'2=c'4 b4 | 
w:  Aş kın   | 
=c'3=b a2{b}a^ga8z4  | e3dc2=B2 c2d2e2^9/8f2 e2d2 | \
w:  ya *  kı *  *  *  yor   |  rû  | 
(3c2=B2c2 d2B2A8z4  | 
w:  hu *  *  mu  *  her   | 
d4e12 f4 | g3f g2=b2a4 gfede4  | e4e2d2 (3e2f2g2(3a2g2f2 f2e2 | 
w:  lâh  |   |  za da  *  câ  | 
e8d3/2c/de f3/2e/fga4  | a6g2 g2ag=f2e2 f2g2 | \
w:  nân   SAZ  |  Gel  *  sî  | 
a2{b}ag =f2{g}fef8z4  | 
w:  ne *  *  *  mi  *  *  *  aç   | 
e4=f2a2 g2f2e2d2 c2d2 | e2d2 g2=fee8z4  | \
w:  yâ  |  re *  mi  *  *  gör   | 
(3c2B2c2d2B2 A4B4 c4 | 
w:  kal  | 
d2e2 f2a2g2=f2 e2d2c2B2  | A4A4 (3A2B2c2(3d2c2B2 B2A2 | \
w:   |  bi mi  din  | 
A8d3/2c/de f3/2e/fga4  | 
w:  le   SAZ  | 
a6g2 g2ag=f2e2 f2g2 | a2{b}ag =f2{g}fef8z4  | \
w:  Gel  *  sî  |  ne *  *  *  mi  *  *  *  aç   | 
e4=f2a2 g2f2e2d2 c2d2 | 
w:  yâ  | 
e2d2 g2=fee8z4  | (3c2B2c2d2B2 A4B4 c4 | \
w:  re *  mi  *  *  gör   |  kal  | 
d2e2 f2a2g2=f2 e2d2c2B2  | 
w:   | 
A4A4 (3A2B2c2(3d2c2B2 B2A2 | A8|
w:  bi mi  din  |  le    | 


